apps/scalable/abiword.svg

<svg xmlns="http://www.w3.org/2000/svg" style="isolation:isolate" width="256" height="256"><defs><filter id="a" width="270.648" height="254.338" x="-7.32" y="2.95" filterUnits="userSpaceOnUse"><feGaussianBlur xmlns="http://www.w3.org/2000/svg" in="SourceGraphic" stdDeviation="4.294"/><feOffset xmlns="http://www.w3.org/2000/svg" dy="4" result="pf_100_offsetBlur"/><feFlood xmlns="http://www.w3.org/2000/svg" flood-opacity=".4"/><feComposite xmlns="http://www.w3.org/2000/svg" in2="pf_100_offsetBlur" operator="in" result="pf_100_dropShadow"/><feBlend xmlns="http://www.w3.org/2000/svg" in="SourceGraphic" in2="pf_100_dropShadow"/></filter></defs><g filter="url(#a)"><linearGradient id="b" x1=".233" x2=".933" y1="-.071" y2=".995" gradientTransform="matrix(244.648 0 0 228.338 5.676 11.947)" gradientUnits="userSpaceOnUse"><stop offset="0%" stop-color="#e8e8e8"/><stop offset="100%" stop-color="#f5f5f5"/></linearGradient><path fill="url(#b)" d="M165.685 11.947c74.055 0 84.639 10.557 84.639 84.544v59.251c0 73.986-10.584 84.543-84.639 84.543h-75.37c-74.055 0-84.639-10.557-84.639-84.543V96.491c0-73.987 10.584-84.544 84.639-84.544h75.37z"/></g><path fill="#FFF" d="M5.676 126.116v29.626c0 73.986 10.584 84.543 84.639 84.543h75.37c74.055 0 84.639-10.557 84.639-84.543v-29.626H5.676z" opacity=".1"/><path fill="#FFF" d="M128 11.947v228.338h37.685c74.055 0 84.639-10.557 84.639-84.543V96.491c0-73.987-10.584-84.544-84.639-84.544H128z" opacity=".2"/><defs><filter id="c" width="166.503" height="160" x="44.75" y="38" filterUnits="userSpaceOnUse"><feGaussianBlur xmlns="http://www.w3.org/2000/svg" stdDeviation="4.294"/></filter></defs><path fill="#333" fill-rule="evenodd" d="M126.086 167.707l4.938 3.634v-.001l8.274 6.091a1.845 1.845 0 0 0 2.584-.394l21.763-29.562a.617.617 0 0 0 .055-.088 342 342 0 0 1 .74 1.637s30.574 62.183 11.682-3.928c0 0-1.555-5.182-4.31-13.186l26.923-36.575a3.697 3.697 0 0 0-.655-5.07l2.396-3.257a3.975 3.975 0 0 0-.844-5.56 3.975 3.975 0 0 0-5.56.844l-2.396 3.254-.112-.083a3.267 3.267 0 0 0-4.57.694l-.223.303-.031.043-21.053 28.597c-5.871-15.231-13.811-33.424-22.744-47.43 0 0-16.851-34.626-37.923-11.995 0 0-44.481 46.999-49.947 101.713 0 0-5.78 31.334 31.418 11.445l50.347-24.919s3.743-1.985 7.503-4.295l-18.731 25.443a1.85 1.85 0 0 0 .386 2.579l-.124-.092-4.775 19.534a.739.739 0 0 0 1.098.809l17.232-10.36-13.341-9.825zm24.297-32.29c3.732-3.246 2.066-4.849-18.885 1.377l-42.21 15.258s-18.407 8.79-10.426-8.138c0 0 17.546-42.974 28.226-54.419 0 0 12.46-23.942 22.631-1.419.003-.003 12.779 18.156 25.226 41.616l-4.336 5.891-.226-.166z" opacity=".4" filter="url(#c)"/><path fill="#37A6E6" d="M164.44 149.024s30.574 62.183 11.682-3.928c0 0-14.392-47.972-33.179-77.426 0 0-16.851-34.626-37.923-11.995 0 0-44.481 46.999-49.947 101.713 0 0-5.78 31.334 31.418 11.445l50.347-24.919s37.334-19.802-5.34-7.12l-42.21 15.258s-18.407 8.79-10.426-8.138c0 0 17.546-42.974 28.226-54.419 0 0 12.46-23.942 22.631-1.419.004-.004 20.364 28.937 34.721 60.948z"/><path fill="#B3B3B3" d="M193.555 96.412l-6.407-4.716 6.924-9.404a3.975 3.975 0 0 1 5.56-.844 3.975 3.975 0 0 1 .844 5.56l-6.921 9.404z"/><path fill="#2DAAAA" d="M155.42 154.179l-11.999-8.832 43.319-58.844a3.694 3.694 0 0 1 5.169-.785l6.042 4.447a3.696 3.696 0 0 1 .784 5.17l-43.315 58.844z"/><path fill="#5BDBC1" d="M148.848 149.341l-5.427-3.994 43.573-59.19a3.267 3.267 0 0 1 4.57-.694l2.794 2.058-45.51 61.82z"/><path fill="#4D4D4D" d="M139.298 177.431l-13.29-9.784a1.85 1.85 0 0 1-.394-2.585l21.762-29.562a1.85 1.85 0 0 1 2.585-.394l13.29 9.784a1.85 1.85 0 0 1 .394 2.585l-21.763 29.562a1.845 1.845 0 0 1-2.584.394z"/><path fill="#6E706B" d="M131.024 171.341l-5.02-3.694a1.85 1.85 0 0 1-.394-2.585l21.763-29.562a1.85 1.85 0 0 1 2.584-.394l5.02 3.694-23.953 32.541z"/><path fill="#CCC" d="M125.872 167.549l-4.775 19.534a.739.739 0 0 0 1.098.809l17.232-10.36-13.555-9.983z"/><g opacity=".4"><linearGradient id="d" x1=".517" x2=".517" y2="1"><stop offset="0%" stop-color="#fff"/><stop offset="12.5%" stop-opacity=".098" stop-color="#fff"/><stop offset="92.5%" stop-opacity=".098"/><stop offset="100%" stop-opacity=".498"/></linearGradient><path fill="none" stroke="url(#d)" stroke-linecap="round" stroke-linejoin="round" stroke-width="4.077" d="M165.685 11.947c74.055 0 84.639 10.557 84.639 84.544v59.251c0 73.986-10.584 84.543-84.639 84.543h-75.37c-74.055 0-84.639-10.557-84.639-84.543V96.491c0-73.987 10.584-84.544 84.639-84.544h75.37z" vector-effect="non-scaling-stroke"/></g></svg>

<svg xmlns="http://www.w3.org/2000/svg" style="isolation:isolate" width="256" height="256" viewBox="0 0 256 256">
 <defs>
  <filter id="RWDtMniMw5XD7NflNTMsm0rvlgy2Ukom" width="270.648" height="254.338" x="-7.32" y="2.95" filterUnits="userSpaceOnUse">
   <feGaussianBlur xmlns="http://www.w3.org/2000/svg" in="SourceGraphic" stdDeviation="4.294"/>
   <feOffset xmlns="http://www.w3.org/2000/svg" dx="0" dy="4" result="pf_100_offsetBlur"/>
   <feFlood xmlns="http://www.w3.org/2000/svg" flood-opacity=".4"/>
   <feComposite xmlns="http://www.w3.org/2000/svg" in2="pf_100_offsetBlur" operator="in" result="pf_100_dropShadow"/>
   <feBlend xmlns="http://www.w3.org/2000/svg" in="SourceGraphic" in2="pf_100_dropShadow" mode="normal"/>
  </filter>
 </defs>
 <g filter="url(#RWDtMniMw5XD7NflNTMsm0rvlgy2Ukom)">
  <linearGradient id="_lgradient_38" x1=".233" x2=".933" y1="-.071" y2=".995" gradientTransform="matrix(244.648,0,0,228.338,5.676,11.947)" gradientUnits="userSpaceOnUse">
   <stop offset="0%" style="stop-color:rgb(232,232,232)"/>
   <stop offset="100%" style="stop-color:rgb(245,245,245)"/>
  </linearGradient>
  <path fill="url(#_lgradient_38)" d="M 165.685 11.947 C 239.74 11.947 250.324 22.504 250.324 96.491 L 250.324 155.742 C 250.324 229.728 239.74 240.285 165.685 240.285 L 90.315 240.285 C 16.26 240.285 5.676 229.728 5.676 155.742 L 5.676 96.491 C 5.676 22.504 16.26 11.947 90.315 11.947 L 165.685 11.947 Z"/>
 </g>
 <g opacity=".1">
  <path fill="#FFFFFF" d="M 5.676 126.116 L 5.676 155.742 C 5.676 229.728 16.26 240.285 90.315 240.285 L 165.685 240.285 C 239.74 240.285 250.324 229.728 250.324 155.742 L 250.324 126.116 L 5.676 126.116 Z"/>
 </g>
 <g opacity=".2">
  <path fill="#FFFFFF" d="M 128 11.947 L 128 240.285 L 165.685 240.285 C 239.74 240.285 250.324 229.728 250.324 155.742 L 250.324 96.491 C 250.324 22.504 239.74 11.947 165.685 11.947 L 128 11.947 Z"/>
 </g>
 <defs>
  <filter id="XZg60IyVeX4mU7BzclOTIkaqxsZjF7AR" width="166.503" height="160" x="44.75" y="38" filterUnits="userSpaceOnUse">
   <feGaussianBlur xmlns="http://www.w3.org/2000/svg" stdDeviation="4.294"/>
  </filter>
 </defs>
 <g opacity=".4" filter="url(#XZg60IyVeX4mU7BzclOTIkaqxsZjF7AR)">
  <path fill="#333333" fill-rule="evenodd" d="M 126.086 167.707 L 131.024 171.341 L 131.024 171.34 L 131.024 171.34 L 139.298 177.431 C 140.121 178.038 141.279 177.86 141.882 177.037 L 163.645 147.475 C 163.665 147.447 163.685 147.418 163.7 147.387 C 163.948 147.932 164.195 148.478 164.44 149.024 L 164.44 149.024 C 164.44 149.024 195.014 211.207 176.122 145.096 C 176.122 145.096 174.567 139.914 171.812 131.91 L 198.735 95.335 C 199.913 93.736 199.614 91.499 198.08 90.265 L 198.08 90.265 L 200.476 87.008 C 201.78 85.24 201.4 82.749 199.632 81.448 L 199.632 81.448 C 197.863 80.144 195.373 80.524 194.072 82.292 L 191.676 85.546 L 191.564 85.463 C 190.109 84.392 188.065 84.703 186.994 86.157 L 186.771 86.46 C 186.761 86.474 186.75 86.488 186.74 86.503 L 165.687 115.1 C 159.816 99.869 151.876 81.676 142.943 67.67 C 142.943 67.67 126.092 33.044 105.02 55.675 C 105.02 55.675 60.539 102.674 55.073 157.388 C 55.073 157.388 49.293 188.722 86.491 168.833 L 136.838 143.914 C 136.838 143.914 140.581 141.929 144.341 139.619 L 144.341 139.619 L 125.61 165.062 C 125.009 165.883 125.18 167.032 125.996 167.641 L 125.872 167.549 L 121.097 187.083 C 120.94 187.721 121.634 188.23 122.195 187.892 L 139.427 177.532 L 126.086 167.707 Z M 150.383 135.417 C 154.115 132.171 152.449 130.568 131.498 136.794 L 89.288 152.052 C 89.288 152.052 70.881 160.842 78.862 143.914 C 78.862 143.914 96.408 100.94 107.088 89.495 C 107.088 89.495 119.548 65.553 129.719 88.076 C 129.722 88.073 142.498 106.232 154.945 129.692 L 150.609 135.583 L 150.383 135.417 L 150.383 135.417 L 150.383 135.417 Z"/>
 </g>
 <g>
  <path fill="#37A6E6" d="M 164.44 149.024 C 164.44 149.024 195.014 211.207 176.122 145.096 C 176.122 145.096 161.73 97.124 142.943 67.67 C 142.943 67.67 126.092 33.044 105.02 55.675 C 105.02 55.675 60.539 102.674 55.073 157.388 C 55.073 157.388 49.293 188.722 86.491 168.833 L 136.838 143.914 C 136.838 143.914 174.172 124.112 131.498 136.794 L 89.288 152.052 C 89.288 152.052 70.881 160.842 78.862 143.914 C 78.862 143.914 96.408 100.94 107.088 89.495 C 107.088 89.495 119.548 65.553 129.719 88.076 C 129.723 88.072 150.083 117.013 164.44 149.024 Z"/>
  <path fill="#B3B3B3" d="M 193.555 96.412 L 187.148 91.696 L 194.072 82.292 C 195.373 80.524 197.863 80.144 199.632 81.448 L 199.632 81.448 C 201.4 82.749 201.78 85.24 200.476 87.008 L 193.555 96.412 Z"/>
  <path fill="#2DAAAA" d="M 155.42 154.179 L 143.421 145.347 L 186.74 86.503 C 187.95 84.856 190.266 84.507 191.909 85.718 L 197.951 90.165 C 199.597 91.376 199.946 93.692 198.735 95.335 L 155.42 154.179 Z"/>
  <path fill="#5BDBC1" d="M 148.848 149.341 L 143.421 145.347 L 186.994 86.157 C 188.065 84.703 190.109 84.392 191.564 85.463 L 194.358 87.521 L 148.848 149.341 Z"/>
  <path fill="#4D4D4D" d="M 139.298 177.431 L 126.008 167.647 C 125.185 167.04 125.01 165.886 125.614 165.062 L 147.376 135.5 C 147.983 134.677 149.138 134.503 149.961 135.106 L 163.251 144.89 C 164.074 145.497 164.248 146.652 163.645 147.475 L 141.882 177.037 C 141.279 177.86 140.121 178.038 139.298 177.431 Z"/>
  <path fill="#6E706B" d="M 131.024 171.341 L 126.004 167.647 C 125.181 167.04 125.007 165.886 125.61 165.062 L 147.373 135.5 C 147.98 134.677 149.134 134.503 149.957 135.106 L 154.977 138.8 L 131.024 171.341 Z"/>
  <path fill="#CCCCCC" d="M 125.872 167.549 L 121.097 187.083 C 120.94 187.721 121.634 188.23 122.195 187.892 L 139.427 177.532 L 125.872 167.549 Z"/>
 </g>
 <g opacity=".4">
  <linearGradient id="_lgradient_39" x1=".517" x2=".517" y1="0" y2="1">
   <stop offset="0%" style="stop-color:rgb(255,255,255)"/>
   <stop offset="12.5%" stop-opacity=".098" style="stop-color:rgb(255,255,255)"/>
   <stop offset="92.5%" stop-opacity=".098" style="stop-color:rgb(0,0,0)"/>
   <stop offset="100%" stop-opacity=".498" style="stop-color:rgb(0,0,0)"/>
  </linearGradient>
  <path fill="none" stroke="url(#_lgradient_39)" stroke-linecap="round" stroke-linejoin="round" stroke-width="4.077" d="M 165.685 11.947 C 239.74 11.947 250.324 22.504 250.324 96.491 L 250.324 155.742 C 250.324 229.728 239.74 240.285 165.685 240.285 L 90.315 240.285 C 16.26 240.285 5.676 229.728 5.676 155.742 L 5.676 96.491 C 5.676 22.504 16.26 11.947 90.315 11.947 L 165.685 11.947 Z" vector-effect="non-scaling-stroke"/>
 </g>
</svg>
